site/themes/s2b_hugo_theme/static/img/cal/icons/endlocation.svg

<svg width="80" height="80" viewBox="0 0 80 80" fill="none" xmlns="http://www.w3.org/2000/svg">
  <path fill-rule="evenodd" d="M13 56C10.3177 56 8 58.2607 8 61.2285C8 64.1964 10.3177 66.4571 13 66.4571C15.6823 66.4571 18 64.1964 18 61.2285C18 58.2607 15.6823 56 13 56ZM2 61.2285C2 55.1074 6.84577 50 13 50C19.1542 50 24 55.1074 24 61.2285C24 67.3497 19.1542 72.4571 13 72.4571C6.84577 72.4571 2 67.3497 2 61.2285Z" fill="black"/>
  <path fill-rule="evenodd" d="M34.5888 29.4936C33.9315 29.435 33.204 29.4842 32.3843 29.6913C31.5781 29.8949 30.8213 30.1429 30.1104 30.4275L27.8803 24.8574C28.8398 24.4732 29.8507 24.1428 30.9147 23.874C32.35 23.5115 33.7546 23.3953 35.1221 23.5174L34.5888 29.4936ZM41.2421 34.1081C39.9215 32.4459 38.6343 31.2149 37.3479 30.4415L40.4394 25.2993C42.5716 26.5812 44.3776 28.4093 45.94 30.3758L41.2421 34.1081ZM27.3057 31.8673C25.9138 32.757 24.7189 33.8119 23.6917 34.9578L19.224 30.9528C20.5747 29.4461 22.1777 28.0241 24.0744 26.8118L27.3057 31.8673ZM71.224 32.8346C71.2962 33.3046 71.3917 33.9735 71.4881 34.7879L65.5296 35.4927C65.4425 34.7563 65.3568 34.1569 65.2936 33.7463C65.2621 33.5412 65.2363 33.3837 65.2189 33.2804C65.2102 33.2287 65.2036 33.1906 65.1994 33.1669L65.1951 33.1423L65.1946 33.1396C65.1946 33.1397 65.1946 33.1398 68.1464 32.6037C71.0981 32.0676 71.0981 32.0678 71.0981 32.0679L71.0986 32.0706L71.1017 32.0881L71.1094 32.1313C71.1157 32.1676 71.1246 32.2186 71.1355 32.2836C71.1574 32.4135 71.1878 32.5994 71.224 32.8346ZM46.7873 42.79C45.7056 40.9113 44.6492 39.0825 43.5515 37.3761L48.5975 34.1299C49.7879 35.9803 50.9159 37.9358 51.9871 39.7963L46.7873 42.79ZM21.7266 37.5421C20.7621 39.0349 20.0249 40.5645 19.4669 41.9783L13.8859 39.7754C14.5606 38.066 15.4692 36.1707 16.687 34.286L21.7266 37.5421ZM71.8074 38.3834C71.9058 40.0629 71.9429 41.9625 71.8285 43.8787L65.8392 43.5211C65.9358 41.9034 65.9065 40.2501 65.8177 38.7345L71.8074 38.3834ZM52.9134 52.2496C51.501 50.5649 50.2048 48.5742 48.9898 46.5594L54.1278 43.4609C55.294 45.3947 56.4005 47.07 57.5113 48.3948L52.9134 52.2496ZM17.9249 47.5114C17.9249 47.5111 17.9249 47.5108 14.9478 47.141C11.9707 46.7712 11.9707 46.7709 11.9708 46.7706L11.9714 46.7655L11.9723 46.7581L11.9748 46.7388L11.9826 46.6815C11.989 46.6351 11.9979 46.5726 12.0098 46.4949C12.0335 46.3395 12.0689 46.1231 12.1188 45.8533C12.2185 45.3142 12.3767 44.5588 12.6161 43.6495L18.4183 45.1773C18.2213 45.9257 18.0947 46.5341 18.0188 46.9444C17.9809 47.1493 17.9558 47.3039 17.941 47.4009C17.9336 47.4494 17.9288 47.4835 17.9262 47.5021L17.9244 47.5149L17.9249 47.5114ZM71.3734 47.6673C70.982 49.712 70.2934 51.852 69.0394 53.6092L64.1555 50.1239C64.709 49.3482 65.1722 48.1496 65.4803 46.5395L71.3734 47.6673ZM61.1772 57.235C59.5495 57.1132 58.0884 56.5552 56.7998 55.7572L59.9587 50.6561C60.5795 51.0406 61.1223 51.2141 61.6248 51.2517C62.2177 51.2961 62.6369 51.2217 62.9379 51.115L64.9426 56.7702C63.7671 57.1868 62.5022 57.3342 61.1772 57.235Z" fill="black"/>
  <path fill-rule="evenodd" d="M75.732 17.5829L77.8533 15.4616L73.6106 11.219L71.4893 13.3403L67.5326 17.2971L63.4817 13.2462L61.3604 11.1249L57.1177 15.3675L59.2391 17.4889L63.2899 21.5397L59.3331 25.4965L57.2118 27.6178L61.4544 31.8604L63.5758 29.7391L67.5326 25.7823L71.5834 29.8332L73.7047 31.9545L77.9474 27.7119L75.826 25.5905L71.7752 21.5397L75.732 17.5829Z" fill="black"/>
</svg>

<svg xmlns="http://www.w3.org/2000/svg" width="80" height="80" fill="none"><path fill="#000" fill-rule="evenodd" d="M13 56c-2.682 0-5 2.26-5 5.228s2.318 5.23 5 5.23 5-2.262 5-5.23C18 58.261 15.682 56 13 56ZM2 61.228C2 55.108 6.846 50 13 50s11 5.107 11 11.228c0 6.122-4.846 11.23-11 11.23S2 67.35 2 61.227ZM34.589 29.494a6.55 6.55 0 0 0-2.205.197c-.806.204-1.563.452-2.274.736l-2.23-5.57c.96-.384 1.97-.714 3.035-.983a12.54 12.54 0 0 1 4.207-.357l-.533 5.977Zm6.653 4.614c-1.32-1.662-2.608-2.893-3.894-3.666l3.091-5.143c2.133 1.282 3.939 3.11 5.501 5.077l-4.698 3.732Zm-13.936-2.24a17.534 17.534 0 0 0-3.614 3.09l-4.468-4.005a23.532 23.532 0 0 1 4.85-4.141l3.232 5.055Zm43.918.967c.072.47.168 1.139.264 1.953l-5.958.705a50.905 50.905 0 0 0-.33-2.326l-.005-.025v-.002l2.951-.536 2.952-.536v.003l.004.017.007.043a39.419 39.419 0 0 1 .115.703ZM46.787 42.79c-1.081-1.879-2.138-3.707-3.236-5.414l5.046-3.246c1.19 1.85 2.319 3.806 3.39 5.666l-5.2 2.994Zm-25.06-5.248a25.34 25.34 0 0 0-2.26 4.436l-5.581-2.203a31.33 31.33 0 0 1 2.801-5.489l5.04 3.256Zm50.08.841c.099 1.68.136 3.58.022 5.496l-5.99-.358a41.117 41.117 0 0 0-.021-4.787l5.99-.35ZM52.913 52.25c-1.412-1.685-2.708-3.676-3.923-5.69l5.138-3.1c1.166 1.935 2.273 3.61 3.383 4.935l-4.598 3.855ZM17.925 47.51l-2.977-.37-2.977-.37v-.005l.001-.008.003-.02.008-.056.027-.187c.024-.155.059-.372.109-.642.1-.539.258-1.294.497-2.203l5.802 1.527a24.576 24.576 0 0 0-.4 1.767 14.903 14.903 0 0 0-.092.558l-.002.013v-.004Zm53.448.156c-.391 2.045-1.08 4.185-2.334 5.942l-4.883-3.485c.553-.776 1.016-1.974 1.324-3.585l5.893 1.128Zm-10.196 9.568c-1.627-.122-3.089-.68-4.377-1.478l3.159-5.1c.62.384 1.163.557 1.666.595.593.044 1.012-.03 1.313-.137l2.005 5.655c-1.176.417-2.44.564-3.766.465ZM75.732 17.583l2.121-2.121-4.242-4.243-2.122 2.121-3.956 3.957-4.051-4.05-2.122-2.122-4.242 4.242 2.121 2.122 4.05 4.05-3.956 3.957-2.121 2.122 4.242 4.242 2.122-2.12 3.957-3.958 4.05 4.051 2.122 2.122 4.242-4.243-2.121-2.122-4.05-4.05 3.956-3.957Z"/></svg>
